X: 139
T: the Miller's Daughter
B: 204 Favourite Country Dances
N: Published by Straight & Skillern, London ca.1775
F: http://imslp.org/wiki/204_Favourite_Country_Dances_(Various) p.70 #139
Z: 2014 John Chambers <jc:trillian.mit.edu>
M: C|
L: 1/8
K: A
% - - - - - - - - - - - - - - - - - - - - - - - - -
a |\
e/e/e e2 c>ded | ceAa Tf2ea |\
e/e/e Te2 c>dec | B/B/B de f2e :|
|: f/g/ |\
a>ea>f e>c Af/g/ | aeea f2 ef/g/ |\
aeaf ecac | B/B/B de f2e :|
% - - - - - - - - - - - - - - - - - - - - - - - - -
%%begintext align
%% The 1st and 2d Cu. foot it and Change Sides .|
%% the same back again :| Lead down two Cu.
%% foot it .|. Lead up to the top and Cast off :|: foot
%% it and turn Corners .||. Lead outsides and turn :||:
%%endtext

%%sep 1 1 500
%%sep 1 1 500
